X:113
T:Vals efter fadern
T:(SvL Halland 113)
R:Vals
O:Lindome, Halland
B:Svenska Låtar Halland
S:Albert Drankenberg
S:Porris Erik
N:SvL: Melodien speldes av Porris Erik.
M:3/4
L:1/8
K:C
G2-|G2 cA Gc|e2 cd c2|G2 cA Gc|e2 cd c2|
Bd ef ga|b2 ab a2|a2 g2 B2|[cE]2 z2:|
|:cd|c2 a2 g2|B3 c BA|B2 a2 g2|c3 d cB|
c2 a2 a2|a2 ga g2|g2 B2 d2|[cE]2 z2:|

